X: 1
T:Graham's Hornpipe
M:2/4
L:1/16
C:Graham Townsend
R:Hornpipe
Z:<cfalt@trytel.com> www.trytel.com/~cfalt/Fiddle/CFtunes1.abc
K:G
dc|"G"BGDB, G,B,DB,|"C"CDGc e2eg|"D7"f2AB cBFD|"G"GABc d2 dc|!
BGDB, G,B,DB,|"C"CEGc e2g2|"D7"f2AB cAFD|"G"[B,2G2][B,2G2][B,2G2]:|!
K:D
|:FG|"D"ABAG FDFA|d2d2 d2cd|"A7"efed cAce|[c2a2][c2a2][c2a2] FG|!
"D"ABAG FDFA|"G"G2B2 B2ed|"A7"cdef ((3gfe) ce|"D"d2d2d2:|]
